shader_type canvas_item;

void vertex() {
	VERTEX.x += cos(TIME * 0.5) * (VERTEX.y - 28.0 ) * 0.05;
}

void fragment() {
	// Called for every pixel the material is visible on.
}

//void light() {
//	// Called for every pixel for every light affecting the CanvasItem.
//	// Uncomment to replace the default light processing function with this one.
//}
